X:1
T:That Grand Word, Whosoever
T:That Grand Word, Whosoever
T:Eliza Edmunds Hewitt
T:Eliza Edmunds Hewitt, 1899
T:Public Domain Courtesy of the Cyber Hymnal™
T:Public Domain Courtesy of the Cyber Hymnal™
C:Eliza Edmunds Hewitt
Z:Public Domain
Z:Courtesy of the Cyber Hymnal™
%%score ( 1 2 ) ( 3 4 )
L:1/8
Q:1/4=93
M:4/4
K:F
V:1 treble 
V:2 treble 
V:3 bass 
V:4 bass 
V:1
 C2 | C>[CF] [CF]>[CG] [FA] [FA]2 [CF] | [DG]>[DF] [DF]>[B,D] [A,C]4 | %3
w: 1.~That|grand word “who- so- ev- er” Is|ring- ing through my soul,|
w: 2.~When-|ev- er this sweet mes- sage In|God’s own Word I see,|
w: 3.~I|heard the lov- ing mes- sage, And|now to o- thers say,|
w: 4.~To|God be all the glo- ry! His|on- ly Son He gave,|
 [Fc]>[Fc] [Fc]>[Fc] [Fc]2 [FA]2 | [EG]6 C2 | C>[CF] [CF]>[CG] [FA] [FA]2 [CF] | %6
w: Who- so- ev- er will may|come; In|riv- ers of sal- va- tion The|
w: Who- so- ev- er will may|come, I|know ’tis meant for sin- ners, I|
w: Who- so- ev- er will may|come; Seek|now the pre- cious Sav- ior, And|
w: Who- so- ev- er will may|come; And|those who come be- liev- ing, He’ll|
 [DG]>[DF] [DF]>[B,D] [A,C]4 | [Fc]>[Fc] [Fc]>[Fc] [FA]2 [EG]2 | F6 ||"^Refrain" [FA]>[GB] | %10
w: liv- ing wa- ters roll,|Who- so- ev- er will may|come.||
w: know ’tis meant for me,|Who- so- ev- er will may|come.|O that|
w: He’ll be yours to- day,|Who- so- ev- er will may|come.||
w: to the ut- most save,|Who- so- ev- er will may|come.||
 [Ac]6 [Bd]2 | [Ac]4 [FA]4 | [FA]>[CG] [CF]>[FA] [Fc]2 [FA]2 | [EG]6 C2 | %14
w: ||||
w: “who- so-|ev- er!”|Who- so- ev- er will may|come; The|
w: ||||
w: ||||
 C>[CF] [CF]>[CG] [FA] [FA]2 [CF] | [DG]>[DF] [DF]>[B,D] [A,C]4 | [Fc]>[Fc] [Fc]>[Fc] [FA]2 [EG]2 | %17
w: |||
w: Sav- ior’s in- vi- ta- tion Is|free- ly sound- ing still,|Who- so- ev- er will may|
w: |||
w: |||
 F6 |] %18
w: |
w: come.|
w: |
w: |
V:2
 C2 | C3/2 x13/2 | x8 | x8 | x6 C2 | C3/2 x13/2 | x8 | x8 | F6 || x2 | x8 | x8 | x8 | x6 C2 | %14
 C3/2 x13/2 | x8 | x8 | F6 |] %18
V:3
 [F,A,]2 | [F,A,]>[F,A,] [F,A,]>[F,B,] [F,C] [F,C]2 [F,A,] | [B,,B,]>[B,,B,] [B,,B,]>[D,F,] F,4 | %3
w: ~|~ ~ ~ ~ ~ ~ ~|~ ~ ~ ~ ~|
 [F,A,]>[F,A,] [F,A,]>[F,A,] [F,A,]2 [F,C]2 | [C,C]6 [E,B,]2 | %5
w: ~ ~ ~ ~ ~ ~|~ ~|
 [F,A,]>[F,A,] [F,A,]>[F,B,] [F,C] [F,C]2 [F,A,] | [B,,B,]>[B,,B,] [B,,B,]>[D,F,] F,4 | %7
w: ~ ~ ~ ~ ~ ~ ~|~ ~ ~ ~ ~|
 [F,A,]>[F,A,] [F,A,]>[F,A,] [C,C]2 [C,B,]2 | [F,A,]6 || z2 | [F,C]>[F,C] [F,F]>[F,F] [F,C]2 z2 | %11
w: ~ ~ ~ ~ ~ ~|~||Who- so- ev- er will,|
 [F,C]>[F,C] [F,F]>[F,F] [F,C]4 | [F,C]>[F,B,] [F,A,]>[F,C] [A,C]2 [F,C]2 | [C,C]6 [E,B,]2 | %14
w: who- so- ev- er will,|||
 [F,A,]>[F,A,] [F,A,]>[F,B,] [F,C] [F,C]2 [F,A,] | [B,,B,]>[B,,B,] [B,,B,]>[D,F,] F,4 | %16
w: ||
 [F,A,]>[F,A,] [F,A,]>[F,A,] [C,C]2 [C,B,]2 | [F,A,]6 |] %18
w: ||
V:4
 x2 | x8 | x4 F,4 | x8 | x8 | x8 | x4 F,4 | x8 | x6 || x2 | x8 | x8 | x8 | x8 | x8 | x4 F,4 | x8 | %17
 x6 |] %18

